X:297
T: I WOASS A KLOANS HAEUSERL
N: E0898
O: Europa, Mitteleuropa, Deutschland, Bayern, Muenchen
R: Ehestands - Lied, Klage
M: 6/8
L: 1/16
K: G
D2 | G3AG2F2E2F2 | G6z4
G2 | c3dc2B2A2B2 | A6z4
c2 | B2d2d2d2e2d2 | d3cc2c2c2
AB | c3Bc2e2d2c2 | B4z2
g4B2 | B3AA2c3FF2 | G6z4
c2 | B2d2d2d2e2d2 | d3cc2c2c2
AB | c3Bc2e2d2c2 | B4z2
g4B2 | B3AA2c3FF2 | G6z4

@@@ Tune index: 4610
